X:298
M:4/4
L:1/4
K:Eb
E | F G A B | G3 B | c e A G | F3 B | e d c B | c c B !sintro!B | E G F F | E3 !eintro!|]
